assets/img/icons_pokemon/fairy.svg

<svg width="256" height="256" viewBox="0 0 256 256" fill="none" xmlns="http://www.w3.org/2000/svg">
<g clip-path="url(#clip0_57_724)">
<path d="M128 256C198.692 256 256 198.692 256 128C256 57.3075 198.692 0 128 0C57.3075 0 0 57.3075 0 128C0 198.692 57.3075 256 128 256Z" fill="#E18CE1"/>
<path d="M168.54 132.61C172.31 139.35 176.26 145.16 177.71 152.11C179.93 162.73 176.5 166.91 165.76 167.85C158.61 168.48 155.53 168.43 141.77 161.55C141.05 174.23 152.19 188.09 149.33 201.68C149.03 203.1 147.22 203.56 146.23 202.49C135.51 190.92 134.81 175.53 128 161.96C121.41 175.41 120.27 190.61 110.02 202.67C109.08 203.77 107.25 203.38 106.91 201.97C103.6 188.35 114.84 175.15 114.59 162.58C109.77 166.54 98.59 168.35 91.85 167.92C79.26 167.12 75.88 162.92 78.65 150.75C80.15 144.13 84.62 139.04 87.22 132.45C79.25 127.31 71.18 123.05 65.56 115.06C55.16 100.3 54.68 83.9799 56.39 67.2899C57.06 60.7299 62.95 58.4699 69.07 58.2899C91.5 57.6399 111.38 62.8499 124.7 82.8999C125.16 83.5933 126.197 85.3766 127.81 88.2499C129.45 85.7499 130.51 84.1299 130.99 83.3899C144.11 63.2299 163.88 57.6299 186.36 58.2899C196.2 58.5799 199.63 62.6399 200.22 72.6499C201.21 89.3699 198.84 104.94 187.83 118.58C182.78 124.83 175.61 127.56 168.55 132.6L168.54 132.61Z" fill="white"/>
<path d="M128.01 97.3801C131.44 107.87 140 116.21 151.76 116.27C147.66 126.99 139.57 130.37 130.56 131.18C119.67 132.16 110.47 128.38 103.82 117.16C114.84 115.6 123.86 108.21 128 97.3701L128.01 97.3801Z" fill="#E291E2"/>
</g>
<defs>
<clipPath id="clip0_57_724">
<rect width="256" height="256" fill="white"/>
</clipPath>
</defs>
</svg>

<?xml version="1.0" encoding="UTF-8"?>
<svg id="Layer_1" data-name="Layer 1" xmlns="http://www.w3.org/2000/svg" viewBox="0 0 256 256">
  <defs>
    <style>
      .cls-1 {
        fill: #fff;
      }

      .cls-2 {
        fill: #e18ce1;
      }

      .cls-3 {
        fill: #e291e2;
      }
    </style>
  </defs>
  <circle class="cls-2" cx="128" cy="128" r="128"/>
  <path class="cls-1" d="M168.54,132.61c3.77,6.74,7.72,12.55,9.17,19.5,2.22,10.62-1.21,14.8-11.95,15.74-7.15,.63-10.23,.58-23.99-6.3-.72,12.68,10.42,26.54,7.56,40.13-.3,1.42-2.11,1.88-3.1,.81-10.72-11.57-11.42-26.96-18.23-40.53-6.59,13.45-7.73,28.65-17.98,40.71-.94,1.1-2.77,.71-3.11-.7-3.31-13.62,7.93-26.82,7.68-39.39-4.82,3.96-16,5.77-22.74,5.34-12.59-.8-15.97-5-13.2-17.17,1.5-6.62,5.97-11.71,8.57-18.3-7.97-5.14-16.04-9.4-21.66-17.39-10.4-14.76-10.88-31.08-9.17-47.77,.67-6.56,6.56-8.82,12.68-9,22.43-.65,42.31,4.56,55.63,24.61q.69,1.04,3.11,5.35,2.46-3.75,3.18-4.86c13.12-20.16,32.89-25.76,55.37-25.1,9.84,.29,13.27,4.35,13.86,14.36,.99,16.72-1.38,32.29-12.39,45.93-5.05,6.25-12.22,8.98-19.28,14.02Z"/>
  <path class="cls-3" d="M128.01,97.38c3.43,10.49,11.99,18.83,23.75,18.89-4.1,10.72-12.19,14.1-21.2,14.91-10.89,.98-20.09-2.8-26.74-14.02,11.02-1.56,20.04-8.95,24.18-19.79Z"/>
</svg>
